X: 1732
T: THE WIDOW CANTWELL'S FANCY
M:2/4
L:1/16
B:O'NEILL'S 1732
N:"collected by Mrs. Cantwell"
Z:Transcribed by A. LEE WORMAN
K:G
(ge)|dBGG GBdB|(3ABG (3FGE DcBA|GFGG GBdB|BAAA A2(ge)|
dBGG GBdB|(3ABG (3FGE DcBA|GBdg ecAF|G2G2 G2:|
|:(Bc)|dg~g2 dg~g2|dg~g2 edcB|Aa{b}ag fedc|Bdef gfge|
dBGG GBdB|(3ABG (3FGE DcBA|GBdg ecAF|G2G2 G2:|


